floristman/img/sprite/viber.svg

<svg width="50" height="50" viewBox="0 0 50 50" fill="none" xmlns="http://www.w3.org/2000/svg">
<path d="M24.4263 3.00004C23.063 3.00785 21.6958 3.08988 20.3169 3.25785C17.6802 3.58207 15.0669 4.12113 12.5591 5.27348C8.5708 7.10551 5.74268 10.2149 4.92237 14.7344C4.57471 16.6407 4.29346 18.5743 4.1333 20.5196C3.82471 24.2969 4.01611 28.086 5.08643 31.8086C5.93018 34.7422 7.48487 37.3789 10.2075 39.0899C11.3599 39.8125 12.8794 40.1641 13.6724 40.5313C13.895 40.6368 13.9497 40.6993 13.9614 40.7149C13.9731 40.7266 14.0044 40.7539 14.0005 40.9883C13.9731 43.3789 14.0005 48.0039 14.0005 48.0039L14.0044 49H15.7896L16.0786 48.7188C16.0786 48.7188 20.6138 44.3555 22.2544 42.5586C22.5513 42.2383 22.7036 42.0586 22.7349 42.0391C22.7622 42.0196 22.7153 42.0079 23.02 42C25.1724 41.9571 27.3208 41.875 29.4692 41.7579C32.3013 41.6016 35.188 41.3321 37.9653 40.1719C40.3833 39.1602 42.4028 37.5079 43.6255 35.0313C44.8755 32.4922 45.5435 29.8008 45.7935 27.0157C46.2075 22.3789 46.063 17.7344 44.7818 13.1563C44.0278 10.4727 42.5122 8.20316 40.188 6.6016C37.4067 4.68754 34.27 3.96879 31.1997 3.51176C29.4067 3.24613 27.6021 3.07035 25.7896 3.01566C25.3364 3.00395 24.8833 2.99613 24.4263 3.00004ZM25.7349 5.01566C27.4575 5.06254 29.1802 5.23051 30.9067 5.48832C33.8677 5.92973 36.6607 6.6016 39.0552 8.25004C40.9966 9.58598 42.2075 11.3907 42.856 13.6914C44.0513 17.9727 44.2036 22.3594 43.8013 26.8399C43.5708 29.4219 42.9575 31.8555 41.8286 34.1485C40.8325 36.1719 39.2778 37.4571 37.1919 38.3282C34.77 39.3399 32.1372 39.6094 29.3638 39.7618C27.2388 39.8789 25.1099 39.9571 22.981 40C22.4458 40.0118 21.9224 40.1524 21.5513 40.4258C21.1802 40.6993 21.0122 40.9532 20.7817 41.2032C19.6099 42.4844 17.2739 44.7383 16.0005 45.9727C15.9927 44.4805 15.981 42.6758 16.0005 41.0118C16.0083 40.5 15.8911 39.9766 15.5981 39.5625C15.3052 39.1485 14.9028 38.8985 14.5161 38.7188C13.3872 38.1954 11.9106 37.7969 11.27 37.3946C9.03174 35.9883 7.76221 33.8789 7.0083 31.2539C6.02002 27.8204 5.83252 24.2852 6.12549 20.6875C6.28174 18.8204 6.55127 16.9493 6.89112 15.0938C7.60205 11.1836 9.83643 8.7227 13.3911 7.08988C15.6372 6.05863 18.0357 5.55082 20.563 5.24223C22.2857 5.03129 24.0083 4.96488 25.7349 5.01566ZM26.1567 10C25.3325 10 24.5317 10.0938 23.7544 10.2657C23.2192 10.3907 22.8794 10.9258 23.0005 11.4649C23.1216 12.0039 23.6607 12.3399 24.1997 12.2188C24.8286 12.0743 25.4849 12 26.1567 12C31.0396 12 34.9771 15.9375 34.9771 20.8164C34.9771 21.4922 34.9028 22.1485 34.7583 22.7813C34.6372 23.3164 34.9732 23.8555 35.5122 23.9766C36.0513 24.0977 36.5864 23.7579 36.7075 23.2188C36.8833 22.4454 36.9771 21.6446 36.9771 20.8164C36.9771 14.8555 32.1216 10 26.1567 10ZM16.1802 12.0039C16.0161 11.9961 15.8481 12.0079 15.6724 12.0469C13.856 12.4493 12.0513 13.7657 12.0005 16.1172C12.0513 16.4454 12.0474 16.7969 12.1685 17.0938C12.7622 18.5469 13.2778 20.0469 14.02 21.4219C17.6333 28.1016 23.0982 32.7461 30.063 35.6954C30.895 36.0469 31.7544 36.1211 32.5942 35.7696C33.7505 35.2891 34.731 34.5469 35.3833 33.4805C36.2778 32.0157 36.2896 31 34.8169 29.918C33.8521 29.2071 32.9028 28.4766 31.9263 27.7813C30.438 26.7266 28.8286 26.543 27.7192 28.3946C27.6607 28.4883 27.5747 28.5664 27.5005 28.6446C26.9302 29.25 26.231 29.3985 25.4888 29.0938C22.6724 27.9336 20.4966 26.0625 19.1841 23.2774C18.4107 21.6407 18.6216 20.8204 20.0669 19.7305C20.2114 19.625 20.3482 19.5118 20.481 19.3907C21.1138 18.8125 21.2817 18.125 20.9067 17.3477C20.0591 15.5743 18.9302 13.9922 17.5005 12.6289C17.1138 12.2618 16.6724 12.0313 16.1802 12.0039ZM26.1411 13C25.6997 13 25.2622 13.0352 24.8325 13.1094C24.4692 13.1563 24.1607 13.3985 24.0278 13.7383C23.895 14.0821 23.9614 14.4688 24.1958 14.75C24.4341 15.0274 24.8091 15.1563 25.1685 15.0782C25.481 15.0274 25.8091 15 26.1411 15C29.3911 15 32.0005 17.6094 32.0005 20.8594C32.0005 21.1914 31.9732 21.5196 31.9224 21.8321C31.8442 22.1914 31.9732 22.5664 32.2505 22.8047C32.5317 23.0391 32.9185 23.1055 33.2622 22.9727C33.6021 22.8399 33.8442 22.5313 33.8911 22.168C33.9653 21.7383 34.0005 21.3008 34.0005 20.8594C34.0005 16.5313 30.4692 13 26.1411 13ZM26.0005 16C25.6411 15.9961 25.3052 16.1836 25.1216 16.4961C24.9419 16.8086 24.9419 17.1914 25.1216 17.5039C25.3052 17.8164 25.6411 18.0039 26.0005 18C27.6685 18 29.0005 19.3321 29.0005 21C28.9966 21.3594 29.1841 21.6954 29.4966 21.8789C29.8091 22.0586 30.1919 22.0586 30.5044 21.8789C30.8169 21.6954 31.0044 21.3594 31.0005 21C31.0005 18.25 28.7505 16 26.0005 16Z" fill="#EB8671"/>
</svg>

<svg width="50" height="50" fill="none" xmlns="http://www.w3.org/2000/svg"><path d="M24.426 3a35.6 35.6 0 0 0-4.11.258c-2.636.324-5.25.863-7.757 2.015-3.988 1.833-6.816 4.942-7.637 9.461a59.516 59.516 0 0 0-.789 5.786c-.308 3.777-.117 7.566.953 11.289.844 2.933 2.399 5.57 5.121 7.28 1.153.724 2.672 1.075 3.465 1.442.223.106.278.168.29.184.011.012.042.039.039.273-.028 2.39 0 7.016 0 7.016l.003.996h1.786l.289-.281s4.535-4.364 6.175-6.16c.297-.32.45-.5.48-.52.028-.02-.019-.031.286-.039 2.152-.043 4.3-.125 6.45-.242 2.831-.156 5.718-.426 8.495-1.586 2.418-1.012 4.438-2.664 5.66-5.14 1.25-2.54 1.919-5.231 2.169-8.016.414-4.637.269-9.282-1.012-13.86-.754-2.683-2.27-4.953-4.594-6.554-2.781-1.914-5.918-2.633-8.988-3.09a46.483 46.483 0 0 0-5.41-.496c-.454-.012-.907-.02-1.364-.016zm1.309 2.016c1.723.047 3.445.215 5.172.472 2.96.442 5.754 1.114 8.148 2.762 1.942 1.336 3.153 3.14 3.801 5.441 1.195 4.282 1.348 8.668.945 13.149-.23 2.582-.843 5.015-1.972 7.308-.996 2.024-2.551 3.31-4.637 4.18-2.422 1.012-5.055 1.281-7.828 1.434-2.125.117-4.254.195-6.383.238-.535.012-1.059.152-1.43.426-.37.273-.539.527-.77.777-1.171 1.281-3.507 3.535-4.78 4.77-.008-1.492-.02-3.297 0-4.961.007-.512-.11-1.035-.403-1.45-.293-.413-.695-.663-1.082-.843-1.129-.524-2.605-.922-3.246-1.324-2.238-1.407-3.508-3.516-4.262-6.141-.988-3.434-1.175-6.969-.883-10.567.157-1.867.426-3.738.766-5.593.711-3.91 2.945-6.371 6.5-8.004 2.246-1.031 4.645-1.54 7.172-1.848a34.192 34.192 0 0 1 5.172-.226zM26.157 10c-.825 0-1.625.094-2.403.266-.535.125-.875.66-.754 1.199.122.539.66.875 1.2.754A8.739 8.739 0 0 1 26.157 12a8.805 8.805 0 0 1 8.82 8.816c0 .676-.074 1.332-.219 1.965a1 1 0 0 0 .754 1.196 1.001 1.001 0 0 0 1.196-.758c.175-.774.27-1.574.27-2.403 0-5.96-4.856-10.816-10.821-10.816zm-9.977 2.004a1.904 1.904 0 0 0-.508.043c-1.816.402-3.62 1.719-3.671 4.07.05.328.046.68.168.977.593 1.453 1.109 2.953 1.851 4.328 3.613 6.68 9.078 11.324 16.043 14.273.832.352 1.691.426 2.531.075 1.157-.48 2.137-1.223 2.79-2.29.894-1.464.906-2.48-.567-3.562-.965-.71-1.914-1.441-2.89-2.137-1.489-1.054-3.098-1.238-4.208.614-.058.093-.144.171-.219.25-.57.605-1.269.753-2.011.449-2.817-1.16-4.992-3.032-6.305-5.817-.773-1.636-.562-2.457.883-3.547.144-.105.281-.218.414-.34.633-.578.8-1.265.426-2.042a15.99 15.99 0 0 0-3.407-4.72c-.386-.366-.828-.597-1.32-.624zm9.961.996c-.441 0-.879.035-1.308.11a1.003 1.003 0 0 0-.637 1.64c.238.277.613.406.973.328.312-.05.64-.078.972-.078 3.25 0 5.86 2.61 5.86 5.86 0 .331-.028.66-.079.972-.078.36.051.734.329.973a1.003 1.003 0 1 0 1.64-.637c.074-.43.11-.867.11-1.309C34 16.531 30.469 13 26.14 13zm-.14 3a1.006 1.006 0 0 0-.88.496 1.01 1.01 0 0 0 0 1.008c.184.312.52.5.88.496 1.668 0 3 1.332 3 3-.004.36.183.695.496.879.312.18.695.18 1.007 0 .313-.184.5-.52.496-.879 0-2.75-2.25-5-5-5z" fill="#EB8671"/></svg>
